X:1
T:Herr Gott regier mich
T:Joachim a Burck
T:Source :  Breitkopf & Härtel---Leipzig---R.Eitner---1898. First print : 20 Deutsche Liedlein zu 4 Stimmen---Erfurt---G.Baumann---1575. Editor : André Vierendeels (05/11/17). Notes : Originel clefs : C1, C3, C4, F3 Editorial accidentals above the staff Original note values have been halved Text by Ludovico Helmbold (Christeliche Reimen)
T:Herr Gott regier mich
T:©
T:©
T:©
T:©
C:Joachim a Burck
Z:©
%%score [ 1 [ 2 3 ] 4 ]
L:1/8
Q:1/4=90
M:2/2
K:C
V:1 treble nm="Soprano" snm="S"
V:2 treble-8 nm="Tenor 1" snm="T 1"
V:3 treble-8 nm="Tenor 2" snm="T 2"
V:4 bass nm="Bass" snm="B"
V:1
 z8 |"^1)" z4 B4 | G2 A4 G2 | E2 G4 F2 | E2 z A2 G2 F | E2 B2 c2 c2 | B4 z4 | z2 A2 A2 A2- | %8
w: |Herr|Gott, re- gier|mich durch dein|Wort, Herr Gott, re-|gier mich durch dein|Wort,|es wird sehr|
w: |Tren-|nung in al-|len Sten- den|ist, Tren- nung in|al- len Sten- den|ist,|Recht will heis-|
 A2 G4 ^F2 | G2 A2 GFFE/D/ | E2 E2 ^F G2 F/E/ | ^FG A2 Bc d2 | G3 A>G G3/2F/4E/4F | G2 z2 d2 e2 | %14
w: _ ent- *||stellt hie und dort _ _|_ _ rech- * te Lehr|Glaub und _ Le- * * *|ben, reich- lich|
w: * sen Be-|trug un List _ _ _ _|_ ei- gen- wil- * *||lig- ge- * sin- * * *|net,- Ge- walt|
 d c2 c A2 G2 | G2 B2 c2 Bc- | cedc B4 | z4 z2 e2 | c2 B A2 c B2 | A c2 B2 A B2 | c4 A4 | ^G8 |] %22
w: ga- bes- tu sie zu-|vor, ge ne- dig- lich|_ auch mich er- hör,|ohn|dich las mich nit blei-|ben, ohn dich las mich|nit blei-|ben.|
w: der fal- schen Lehr bey-|felt, im Schutz und Schirm|_ die Heuch- ler helt,|Ey-|tel keit o- ben schwim-|met, Ey- del- keit o-|ben schwim-|met.|
V:2
 z4 z2 e2 |"^2)" c2 d2 ef g2- | gfed c2 B2 | GE e4 d2 | e4 z2 d2 | c2 B2 e2 e2 | E3 E A4 | %7
w: Herr|Gott, re- gier _ _|_ _ _ _ _ mich|durch _ _ dein|Wort, Herr|Gott, re- gier mich|durch dein Wort,|
w: Rein|war E- van- * *||* * ge- li-|on, Mar-|ti- nus Lu- ther|must es thun.|
 z4 z2 A2 | B2 c2 d4 | e2 e3 d d2- | d2 ^c2 d2 d2- | d2 ^f2 gf/e/ d2 | e2 e2 d4 | d2 z2 g2 g2 | %14
w: es|wird _ sehr|ent- stellt _ hie|_ und dort; rech-|* te Lehr, _ _ _|Glaaub und Le-|ben, reich- lich|
w: In|dei- nem Geist|er- re- * *|* * get, Chri-|* stus al- * * lein|sonst nie- mand|mehr, Chri- stus|
 g e2 g f2 d2 | e2 z g g2 ge- | efgg g4 | e3 f2 e2 e | e>fg f>g a2 ^g | a2 e2 d2 g2 | %20
w: ga- bes- tu sie zu-|vor, ge- ne- dig- lich|_ auch mich er- hör,|ohn dich las mich|nit _ _ blei- * * *|ben, ohn dich las|
w: al- lein sonst nie- mand|mehr, Heil al- ler Welt,|_ war sei- ne Lehr,|durch- läu- tert und|fe- * * * * * *|get, durch- läu- tert|
 f2 e e2 d/c/ d2 | e8 |] %22
w: mich nit blei- * * *|ben.|
w: und ge- fe- * * *|get.|
V:3
"^3)""^1)" B4 G2 A2- |"^1)" A2 G2 E2 e2- | edcB A2 E2 | B2 z B c2 AA- | AG c3 B A2- | A2 ^G2 ABcd | %6
w: Herr Gott, re-|* gier mich durch|_ _ _ _ _ dein|Wort, Herr- Gott, re- gier|_ mich durch _ _|_ dein Wort, _ _ _|
w: Ü- ber geist-|* lich und welt-|* * * * * lich|Macht, reis er hin- durch|_ gantz un- * *|* ge- acht, _ _ _|
 e2 e2 d4- | d2 cB c2 d2 | e4 A4 | c4 _B4 | A4 z2 A2 | A2 d4 B2- |"^-natural" B2 c2 BA/G/ A2 | %13
w: _ es wird|_ _ _ _ sehr|ent- stellt|hie und|dort; rech-|te Lehr, Glaub|_ und Le- * * *|
w: _ Creuz, Zorn,|_ _ _ _ Grim,|_ Trotz|und To-|ben. Herr,|durch dein Kraft|_ er ü- * * ber-|
 G2 z2 B2 c2 | B c2 e d c>BB | c2 d2 e2 dc- | ccde d2 z e | c2 B A2 c B2 | A2 Gd dAee | %19
w: ben, reich- lich|ga- bes- tu sie zu _ _|vor, ge- ne- dig- lich|_ auch mich er- hör, ohn|dich las mich nit blei-|ben, ohn dich las mich nit blei-|
w: wandt, den Bapst|und al- ler Ket- zer _ _|tandt, den Bapst und al-|* ler Ket- zer tandt, ey,|dass wirs the- ten lo-|ben, ey, dass wirs the- ten lo-|
 A2 z2 d3 e | c2 A3 A A2 | B8 |] %22
w: ben, ohn dich|las mich nit blei-|ben.|
w: ben, ey, dass|wirs the- ten lo-|ben.|
V:4
"^4)" z8 | z8 | z8 | E,4 C,2 D,2 | C,2 A,,2 C,2 D,2 | E,4 z2 A,2- | A,2 G,4 ^F,2 | G,2 A,2 F,4 | %8
w: |||Herr Gott, re-|gier mich durch dein|Wort, es|_ wird ent-|stellt _ hie|
w: |||Jetzt dringt her-|ein manch schwär- me-|rey, nie-|* mandt der|Ein- falt wo-|
 E,4 D,4 |"^#""^#" z8 | z4 D,4- | D,2 D,2 G,4 | E,2 C,2 D,4 | G,2 z2 G,2 C,2 | G, A,2 E, F,2 G,2 | %15
w: und dort;||rech-|* te Lehr,|Glaub und Le-|ben, reich- lich|ga- bes- tu sue Zu|
w: net bey,||wehr,|_ lie- ber|Gott, den Rot-|ten, ob dei-|nem Wort mich hal- ten|
 C,2 G,2 C2 G,A,- | A,A,B,C G,2 z E, | A,2 G,F, D, A,>^G,G, | A,2 z2 z4 | z A,2 G,2 ^F, G,2 | %20
w: vor, ge- ne- dig- mich|_ auch mich er- hör, ohn|dich las mich nit blei- * *|ben,|ohn dich las mich|
w: Lehr, re- gier mich dir|_ zu Lob und Ehr, tröst|mich und helf aus Nö- * *|ten,|tröst mich und helf|
 A,4 F,4 | E,8 |] %22
w: nit blei-|ben.|
w: aus Nö-|ten.|

